!! 00047] TT[KA
!! NN
!!!OTL: Shuzhuang tai
!!!ARE: Asia, China,ˇnan Jiangsu, Nantong(Nord)
!! Ethnic Group: Han
!! III, 474
!!!SCT: C0326
!!!YEM: Copyright 1995, estate of Helmut Schaffrath.
**kern
*ICvox
*Ivox
*M2/4
*k[f#]
*G:
{8g
16g
16e
8g
8a
=1
16b
16a
4.b
=2
16dd
16b
16b
16a
16g
16e
16e
16g
=3
2a}
=4
{8a
8a
8.b
16dd
=5
8e
16g
16e
16d
16B
8d
=6
8g
8b
16a
8g
16a
=7
2d}
=8
{16e
16g
16d
16e
4g
=9
16a
16b
16g
16a
4b
=10
16dd
16b
16b
16a
16g
16a
8b
=11
16a
16g
4.e}
=12
{8a
8a
8b
8dd
=13
8e
16g
16e
16d
16B
8d}
=14
{8g
16g
16e
16g
16a
16b
16g
=15
8.a
16b
16a
16g
8e
=16
2d}
==
!!!AGN: Xiaodiao, Shidiao, Chun diao, MengjiangnÅ diao. FunÅ shuzhuang
!! 1 Phrase = 2 kurze Saetze, re so la so). Das Lied auf Seite 471
!!    hat zwar dieselben Phrasentoene, wird aber nicht in zwei kurze
!!    Saetze eingeteilt. Dass. gilt fuer S. 473
!!!ONB: ESAC (Essen Associative Code) Database: CHINA
!!!AMT: simple duple
!!!AIN: vox
!!!EED: Helmut Schaffrath
!!!EEV: 1.0
*-
